src/public/img/history/fontfamous.svg

<svg xmlns="http://www.w3.org/2000/svg" xmlns:xlink="http://www.w3.org/1999/xlink" width="152" height="36" viewBox="0 0 152 36">
  <defs>
    <rect id="logo-a" width="36" height="36" x="0" y="0" rx="8"/>
  </defs>
  <g fill="none" fill-rule="evenodd">
    <path fill="#16171B" d="M57.2880647,14.6266094 L50.9357839,14.6266094 L50.9357839,16.7381974 L56.7043416,16.7381974 L56.7043416,19.3648069 L50.9357839,19.3648069 L50.9357839,23.7939914 L48,23.7939914 L48,12 L57.2880647,12 L57.2880647,14.6266094 Z M62.923091,24 C60.2448321,24 57.9957813,21.8712446 57.9957813,19.3476395 C57.9957813,16.8240343 60.2448321,14.7124464 62.923091,14.7124464 C65.60135,14.7124464 67.8504008,16.8240343 67.8504008,19.3476395 C67.8504008,21.8712446 65.60135,24 62.923091,24 Z M62.923091,21.5793991 C64.1077056,21.5793991 65.1034685,20.5493562 65.1034685,19.3476395 C65.1034685,18.1459227 64.1077056,17.1330472 62.923091,17.1330472 C61.7384765,17.1330472 60.7427135,18.1459227 60.7427135,19.3476395 C60.7427135,20.5493562 61.7384765,21.5793991 62.923091,21.5793991 Z M74.3610118,14.7124464 C76.266696,14.7124464 77.6229938,16.1373391 77.6229938,18.1459227 L77.6229938,23.7939914 L74.8417249,23.7939914 L74.8417249,18.7982833 C74.8417249,17.8197425 74.2236651,17.1330472 73.3309122,17.1330472 C72.4381592,17.1330472 71.7685944,17.8025751 71.7685944,18.6781116 L71.7514261,18.6266094 L71.7514261,23.7939914 L68.8499789,23.7939914 L68.8499789,14.9184549 L71.7514261,14.9184549 L71.7514261,15.9313305 C72.3008126,15.1759657 73.2450705,14.7124464 74.3610118,14.7124464 Z M84.0305948,21.2875536 L84.6143179,23.1587983 C84.0820998,23.6566524 83.2065152,24 82.4511088,24 C80.7857811,24 79.6183349,22.8154506 79.6183349,21.1502146 L79.6183349,17.2360515 L78.4508887,17.2360515 L78.4508887,14.9184549 L79.6183349,14.9184549 L79.6183349,12.4806867 L82.3996038,12.4806867 L82.3996038,14.9184549 L84.2366148,14.9184549 L84.2366148,17.2360515 L82.3996038,17.2360515 L82.3996038,20.6180258 C82.3996038,21.1845494 82.7429703,21.5793991 83.2065152,21.5793991 C83.5327134,21.5793991 83.8589116,21.4592275 84.0305948,21.2875536 Z M95.4475321,14.6266094 L89.0952512,14.6266094 L89.0952512,16.7381974 L94.8638089,16.7381974 L94.8638089,19.3648069 L89.0952512,19.3648069 L89.0952512,23.7939914 L86.1594673,23.7939914 L86.1594673,12 L95.4475321,12 L95.4475321,14.6266094 Z M101.21609,14.7124464 C103.499477,14.7124464 105.21631,16.1545064 105.21631,18.5236052 L105.21631,23.7939914 L102.417873,23.7939914 L102.417873,23.0386266 C101.799813,23.6566524 100.872723,24 99.962802,24 C98.074286,24 96.5806416,22.8497854 96.5806416,21.167382 C96.5806416,19.4334764 98.2459693,18.2145923 100.340505,18.2145923 C100.992902,18.2145923 101.73114,18.3690987 102.417873,18.6437768 L102.417873,18.5236052 C102.417873,17.5793991 101.696803,16.8927039 100.477852,16.8927039 C99.6366038,16.8927039 99.0013757,17.1502146 98.2459693,17.5450644 L97.336048,15.7253219 C98.5721675,15.1072961 99.8426237,14.7124464 101.21609,14.7124464 Z M100.666703,22.2145923 C101.52512,22.2145923 102.297694,21.8025751 102.417873,21.1330472 L102.417873,20.1888412 C101.971496,20.0171674 101.353436,19.8969957 100.752545,19.8969957 C99.962802,19.8969957 99.3447422,20.3948498 99.3447422,21.0815451 C99.3447422,21.7682403 99.8941287,22.2145923 100.666703,22.2145923 Z M118.023882,14.7124464 C119.878061,14.7124464 121.354537,16.1373391 121.354537,18.1459227 L121.354537,23.8111588 L118.573268,23.8111588 L118.573268,18.6609442 C118.573268,17.7682403 117.989545,17.1330472 117.165465,17.1330472 C116.289881,17.1330472 115.671821,17.7339056 115.671821,18.5407725 L115.671821,23.8111588 L112.890552,23.8111588 L112.890552,18.6609442 C112.890552,17.7682403 112.306829,17.1330472 111.482749,17.1330472 C110.607164,17.1330472 109.989105,17.7339056 109.989105,18.5407725 L109.989105,23.7939914 L107.087658,23.7939914 L107.087658,14.9184549 L109.989105,14.9184549 L109.989105,16.0686695 C110.418313,15.2274678 111.276729,14.7124464 112.358334,14.7124464 C113.542948,14.7124464 114.573048,15.2961373 115.156771,16.2403433 C115.637484,15.3133047 116.719089,14.7124464 118.023882,14.7124464 Z M127.741154,24 C125.062896,24 122.813845,21.8712446 122.813845,19.3476395 C122.813845,16.8240343 125.062896,14.7124464 127.741154,14.7124464 C130.419413,14.7124464 132.668464,16.8240343 132.668464,19.3476395 C132.668464,21.8712446 130.419413,24 127.741154,24 Z M127.741154,21.5793991 C128.925769,21.5793991 129.921532,20.5493562 129.921532,19.3476395 C129.921532,18.1459227 128.925769,17.1330472 127.741154,17.1330472 C126.55654,17.1330472 125.560777,18.1459227 125.560777,19.3476395 C125.560777,20.5493562 126.55654,21.5793991 127.741154,21.5793991 Z M139.982171,14.9184549 L142.883619,14.9184549 L142.883619,23.7939914 L139.982171,23.7939914 L139.982171,22.7811159 C139.432785,23.5364807 138.488527,24 137.372586,24 C135.466901,24 134.110604,22.5751073 134.110604,20.5665236 L134.110604,14.9184549 L136.891873,14.9184549 L136.891873,19.9141631 C136.891873,20.8927039 137.509932,21.5793991 138.402685,21.5793991 C139.295438,21.5793991 139.965003,20.9098712 139.965003,20.0343348 L139.982171,20.0858369 L139.982171,14.9184549 Z M148.274473,24 C146.780829,24 145.235679,23.5021459 144.154075,22.6609442 L145.321521,20.7896996 C146.145601,21.3733906 147.27871,21.8025751 148.343146,21.8025751 C148.978375,21.8025751 149.338909,21.5965665 149.338909,21.2532189 C149.338909,20.8240343 148.755186,20.6523605 147.879602,20.4463519 C146.162769,20.0515021 144.566115,19.6051502 144.548946,17.6824034 C144.548946,15.9828326 145.939581,14.7124464 148.137127,14.7124464 C149.459088,14.7124464 150.746712,15.1759657 151.742475,15.8454936 L150.678039,17.751073 C149.905464,17.2532189 148.944038,16.8755365 148.137127,16.8755365 C147.604908,16.8755365 147.227205,17.1158798 147.227205,17.3905579 C147.227205,17.7854077 147.604908,17.8712446 148.652176,18.1459227 C150.231662,18.5236052 152,19.0386266 152,21.0643777 C152,22.8497854 150.557861,24 148.274473,24 Z"/>
    <mask id="logo-b" fill="#fff">
      <use xlink:href="#logo-a"/>
    </mask>
    <use fill="#2B42EA" xlink:href="#logo-a"/>
    <path fill="#000" d="M14.9697294,-0.0957442515 C15.5051869,-1.25469868 16.6912701,-2 18,-2 C19.3087299,-2 20.4948131,-1.25469868 21.0302706,-0.0957442515 L24.9646866,8.41680145 C25.1434217,8.80287769 25.423116,9.13742872 25.7753513,9.38562059 C26.1283344,9.63453817 26.5418931,9.78911381 26.9756436,9.83483336 L36.5346067,10.8355836 C37.8358582,10.9712909 38.9329477,11.8363339 39.3375322,13.043185 C39.7413689,14.2507618 39.3779159,15.5766289 38.4079601,16.4286092 L31.2802431,22.6907368 C30.9571738,22.9744883 30.7156197,23.3358905 30.5810075,23.7379323 C30.4463952,24.1406998 30.4224642,24.5703185 30.5122057,24.9839716 L32.4857703,34.1155456 C32.7542469,35.358682 32.2457119,36.6381039 31.1875103,37.3848566 C30.1285608,38.1308836 28.7173761,38.2041801 27.5821464,37.5728148 L19.2429195,32.92974 C18.8645096,32.7192849 18.435994,32.6082517 18,32.6082517 C17.564006,32.6082517 17.1354904,32.7192849 16.7570805,32.92974 L8.41785362,37.5728148 C7.28262391,38.2041801 5.87143916,38.1308836 4.81248971,37.3848566 C3.75428811,36.6381039 3.24575306,35.358682 3.51422965,34.1155456 L5.48779434,24.9839716 C5.57753582,24.5703185 5.55360476,24.1406998 5.41899254,23.7379323 C5.28438032,23.3358905 5.04282617,22.9744883 4.71975685,22.6907368 L-2.40796009,16.4286092 C-3.37791591,15.5766289 -3.7413689,14.2507618 -3.33753224,13.043185 C-2.93294774,11.8363339 -1.83585817,10.9712909 -0.534606725,10.8355836 L9.02435644,9.83483336 C9.45810692,9.78911381 9.87166557,9.63453817 10.2246487,9.38562059 C10.576884,9.13742872 10.8565783,8.80287769 11.0353134,8.41680145 L14.9697294,-0.0957442515 L14.9697294,-0.0957442515 Z" mask="url(#logo-b)" opacity=".3"/>
    <path fill="#FFF" d="M16.801986,10.7617023 C17.0136785,10.2981205 17.4825952,10 18,10 C18.5174048,10 18.9863215,10.2981205 19.198014,10.7617023 L20.7534807,14.1667206 C20.8241435,14.3211511 20.9347203,14.4549715 21.0739761,14.5542482 C21.2135276,14.6538153 21.3770275,14.7156455 21.5485102,14.7339333 L25.3276352,15.1342334 C25.8420835,15.1885163 26.2758165,15.5345336 26.4357686,16.017274 C26.5954249,16.5003047 26.4517342,17.0306516 26.0682633,17.3714437 L23.2503287,19.8762947 C23.1226036,19.9897953 23.0271055,20.1343562 22.9738867,20.2951729 C22.9206679,20.4562799 22.9112068,20.6281274 22.946686,20.7935886 L23.7269325,24.4462182 C23.8330744,24.9434728 23.6320256,25.4552415 23.2136669,25.7539426 C22.7950124,26.0523535 22.2371022,26.081672 21.7882904,25.8291259 L18.4913868,23.971896 C18.3417829,23.887714 18.1723697,23.8433007 18,23.8433007 C17.8276303,23.8433007 17.6582171,23.887714 17.5086132,23.971896 L14.2117096,25.8291259 C13.7628978,26.081672 13.2049876,26.0523535 12.7863331,25.7539426 C12.3679744,25.4552415 12.1669256,24.9434728 12.2730675,24.4462182 L13.053314,20.7935886 C13.0887932,20.6281274 13.0793321,20.4562799 13.0261133,20.2951729 C12.9728945,20.1343562 12.8773964,19.9897953 12.7496713,19.8762947 L9.93173671,17.3714437 C9.5482658,17.0306516 9.40457509,16.5003047 9.56423144,16.017274 C9.72418345,15.5345336 10.1579165,15.1885163 10.6723648,15.1342334 L14.4514898,14.7339333 C14.6229725,14.7156455 14.7864724,14.6538153 14.9260239,14.5542482 C15.0652797,14.4549715 15.1758565,14.3211511 15.2465193,14.1667206 L16.801986,10.7617023 L16.801986,10.7617023 Z"/>
  </g>
</svg>

<svg xmlns="http://www.w3.org/2000/svg" xmlns:xlink="http://www.w3.org/1999/xlink" width="152" height="36">
  <defs>
    <rect id="a" width="36" height="36" x="0" y="0" rx="8"/>
  </defs>
  <g fill="none" fill-rule="evenodd">
    <path fill="#16171B" d="M57.288 14.627h-6.352v2.111h5.768v2.627h-5.768v4.429H48V12h9.288v2.627ZM62.923 24c-2.678 0-4.927-2.129-4.927-4.652 0-2.524 2.249-4.636 4.927-4.636 2.678 0 4.927 2.112 4.927 4.636 0 2.523-2.249 4.652-4.927 4.652Zm0-2.42c1.185 0 2.18-1.03 2.18-2.232 0-1.202-.995-2.215-2.18-2.215s-2.18 1.013-2.18 2.215c0 1.201.995 2.231 2.18 2.231Zm11.438-6.868c1.906 0 3.262 1.425 3.262 3.434v5.648h-2.781v-4.996c0-.978-.618-1.665-1.511-1.665-.893 0-1.562.67-1.562 1.545l-.018-.051v5.167H68.85v-8.876h2.901v1.013c.55-.755 1.494-1.219 2.61-1.219Zm9.67 6.576.583 1.87c-.532.499-1.407.842-2.163.842-1.665 0-2.833-1.185-2.833-2.85v-3.914h-1.167v-2.318h1.167v-2.437H82.4v2.437h1.837v2.318H82.4v3.382c0 .567.343.961.807.961.326 0 .652-.12.824-.291Zm11.417-6.661h-6.353v2.111h5.769v2.627h-5.769v4.429H86.16V12h9.289v2.627Zm5.768.085c2.283 0 4 1.443 4 3.812v5.27h-2.798v-.755c-.618.618-1.545.961-2.455.961-1.889 0-3.382-1.15-3.382-2.833 0-1.734 1.665-2.952 3.76-2.952.652 0 1.39.154 2.077.429v-.12c0-.945-.721-1.631-1.94-1.631-.841 0-1.477.257-2.232.652l-.91-1.82c1.236-.618 2.507-1.013 3.88-1.013Zm-.55 7.503c.86 0 1.632-.412 1.752-1.082v-.944a4.89 4.89 0 0 0-1.665-.292c-.79 0-1.408.498-1.408 1.185 0 .686.55 1.133 1.322 1.133Zm17.358-7.503c1.854 0 3.33 1.425 3.33 3.434v5.665h-2.78v-5.15c0-.893-.584-1.528-1.409-1.528-.875 0-1.493.6-1.493 1.408v5.27h-2.781v-5.15c0-.893-.584-1.528-1.408-1.528-.876 0-1.494.6-1.494 1.408v5.253h-2.901v-8.876h2.901v1.15c.43-.84 1.288-1.356 2.37-1.356 1.184 0 2.214.584 2.798 1.528.48-.927 1.562-1.528 2.867-1.528ZM127.74 24c-2.678 0-4.927-2.129-4.927-4.652 0-2.524 2.249-4.636 4.927-4.636 2.678 0 4.927 2.112 4.927 4.636 0 2.523-2.249 4.652-4.927 4.652Zm0-2.42c1.185 0 2.18-1.03 2.18-2.232 0-1.202-.995-2.215-2.18-2.215-1.184 0-2.18 1.013-2.18 2.215 0 1.201.996 2.231 2.18 2.231Zm12.241-6.662h2.902v8.876h-2.902v-1.013c-.55.755-1.493 1.219-2.61 1.219-1.905 0-3.261-1.425-3.261-3.433v-5.649h2.78v4.996c0 .979.619 1.665 1.512 1.665.892 0 1.562-.67 1.562-1.545l.017.052v-5.168ZM148.274 24c-1.493 0-3.038-.498-4.12-1.34l1.168-1.87c.824.583 1.957 1.013 3.021 1.013.635 0 .996-.206.996-.55 0-.429-.584-.6-1.46-.807-1.716-.394-3.313-.84-3.33-2.764 0-1.7 1.39-2.97 3.588-2.97 1.322 0 2.61.464 3.605 1.133l-1.064 1.906c-.773-.498-1.734-.875-2.54-.875-.533 0-.91.24-.91.515 0 .394.377.48 1.424.755 1.58.378 3.348.893 3.348 2.918 0 1.786-1.442 2.936-3.726 2.936Z"/>
    <mask id="b" fill="#fff">
      <use xlink:href="#a"/>
    </mask>
    <use xlink:href="#a" fill="#2B42EA"/>
    <path fill="#000" d="M14.97-.096C15.505-1.255 16.69-2 18-2c1.309 0 2.495.745 3.03 1.904l3.935 8.513c.178.386.458.72.81.969a2.55 2.55 0 0 0 1.2.449l9.56 1c1.3.136 2.398 1.001 2.803 2.208a3.161 3.161 0 0 1-.93 3.386L31.28 22.69a2.418 2.418 0 0 0-.699 1.047 2.353 2.353 0 0 0-.069 1.246l1.974 9.132c.268 1.243-.24 2.522-1.298 3.269a3.408 3.408 0 0 1-3.606.188l-8.34-4.643a2.56 2.56 0 0 0-2.485 0l-8.34 4.643a3.408 3.408 0 0 1-3.605-.188c-1.058-.747-1.566-2.026-1.298-3.27l1.974-9.131c.09-.414.066-.843-.069-1.246a2.418 2.418 0 0 0-.7-1.047l-7.127-6.262a3.161 3.161 0 0 1-.93-3.386c.405-1.207 1.502-2.072 2.803-2.207l9.56-1.001a2.54 2.54 0 0 0 1.2-.45c.352-.248.632-.582.81-.968L14.97-.096Z" mask="url(#b)" opacity=".3"/>
    <path fill="#FFF" d="M16.802 10.762c.212-.464.68-.762 1.198-.762.517 0 .986.298 1.198.762l1.555 3.405a.98.98 0 0 0 .321.387 1 1 0 0 0 .475.18l3.779.4c.514.055.948.4 1.108.883.16.483.016 1.014-.368 1.354l-2.818 2.505a.952.952 0 0 0-.304.917l.78 3.653a1.278 1.278 0 0 1-.512 1.308 1.334 1.334 0 0 1-1.426.075l-3.297-1.857a1.003 1.003 0 0 0-.982 0l-3.297 1.857a1.334 1.334 0 0 1-1.426-.075 1.278 1.278 0 0 1-.513-1.308l.78-3.652a.952.952 0 0 0-.303-.918l-2.818-2.505a1.274 1.274 0 0 1-.368-1.354 1.31 1.31 0 0 1 1.108-.883l3.78-.4a1 1 0 0 0 .474-.18.961.961 0 0 0 .32-.387l1.556-3.405Z"/>
  </g>
</svg>
